public/tailwind.svg

<?xml version="1.0" encoding="UTF-8"?>
<svg xmlns="http://www.w3.org/2000/svg" xmlns:xlink="http://www.w3.org/1999/xlink" width="512px" height="512px" viewBox="0 0 512 63" version="1.1">
<g id="surface1">
<path style=" stroke:none;fill-rule:nonzero;fill:rgb(21.960784%,74.117647%,97.254902%);fill-opacity:1;" d="M 52.898438 0 C 38.792969 0 29.976562 7.054688 26.449219 21.160156 C 31.738281 14.105469 37.910156 11.460938 44.964844 13.226562 C 48.988281 14.230469 51.863281 17.152344 55.050781 20.382812 C 60.234375 25.644531 66.238281 31.738281 79.347656 31.738281 C 93.453125 31.738281 102.269531 24.6875 105.796875 10.578125 C 100.507812 17.632812 94.335938 20.277344 87.28125 18.515625 C 83.257812 17.507812 80.382812 14.589844 77.199219 11.355469 C 72.011719 6.09375 66.011719 0 52.898438 0 Z M 26.449219 31.738281 C 12.34375 31.738281 3.527344 38.792969 0 52.898438 C 5.289062 45.84375 11.460938 43.199219 18.515625 44.964844 C 22.539062 45.972656 25.414062 48.890625 28.597656 52.121094 C 33.785156 57.386719 39.789062 63.476562 52.898438 63.476562 C 67.007812 63.476562 75.820312 56.425781 79.347656 42.316406 C 74.058594 49.371094 67.886719 52.015625 60.835938 50.253906 C 56.808594 49.246094 53.933594 46.328125 50.75 43.097656 C 45.5625 37.832031 39.5625 31.738281 26.449219 31.738281 Z M 26.449219 31.738281 "/>
<path style=" stroke:none;fill-rule:nonzero;fill:rgb(5.882353%,9.019608%,16.470588%);fill-opacity:1;" d="M 158.6875 26.746094 L 149.457031 26.746094 L 149.457031 44.613281 C 149.457031 49.378906 152.582031 49.304688 158.6875 49.007812 L 158.6875 56.230469 C 146.328125 57.71875 141.414062 54.292969 141.414062 44.613281 L 141.414062 26.746094 L 134.566406 26.746094 L 134.566406 19.003906 L 141.414062 19.003906 L 141.414062 9.003906 L 149.453125 6.621094 L 149.453125 19.003906 L 158.6875 19.003906 Z M 193.878906 19.003906 L 201.917969 19.003906 L 201.917969 56.230469 L 193.878906 56.230469 L 193.878906 50.871094 C 191.050781 54.816406 186.65625 57.199219 180.847656 57.199219 C 170.726562 57.199219 162.3125 48.636719 162.3125 37.617188 C 162.3125 26.523438 170.726562 18.039062 180.851562 18.039062 C 186.65625 18.039062 191.050781 20.421875 193.878906 24.289062 Z M 182.113281 49.53125 C 188.816406 49.53125 193.878906 44.539062 193.878906 37.617188 C 193.878906 30.695312 188.816406 25.707031 182.113281 25.707031 C 175.414062 25.707031 170.351562 30.695312 170.351562 37.617188 C 170.351562 44.542969 175.414062 49.53125 182.113281 49.53125 Z M 215.320312 13.421875 C 212.488281 13.421875 210.183594 11.035156 210.183594 8.28125 C 210.1875 5.445312 212.484375 3.152344 215.320312 3.144531 C 218.15625 3.152344 220.453125 5.445312 220.457031 8.28125 C 220.457031 11.035156 218.148438 13.421875 215.320312 13.421875 Z M 211.300781 56.226562 L 211.300781 19.003906 L 219.339844 19.003906 L 219.339844 56.230469 Z M 228.644531 56.226562 L 228.644531 1.882812 L 236.6875 1.882812 L 236.6875 56.230469 Z M 288.875 19.003906 L 297.363281 19.003906 L 285.675781 56.230469 L 277.78125 56.230469 L 270.039062 31.140625 L 262.222656 56.230469 L 254.332031 56.230469 L 242.644531 19.003906 L 251.128906 19.003906 L 258.351562 44.691406 L 266.167969 19.003906 L 273.835938 19.003906 L 281.578125 44.691406 Z M 307.339844 13.421875 C 304.511719 13.421875 302.203125 11.035156 302.203125 8.28125 C 302.207031 5.445312 304.503906 3.152344 307.339844 3.144531 C 310.175781 3.152344 312.472656 5.445312 312.476562 8.28125 C 312.476562 11.035156 310.167969 13.421875 307.339844 13.421875 Z M 303.320312 56.226562 L 303.320312 19.003906 L 311.359375 19.003906 L 311.359375 56.230469 Z M 340.246094 18.035156 C 348.585938 18.035156 354.539062 23.695312 354.539062 33.371094 L 354.539062 56.226562 L 346.5 56.226562 L 346.5 34.191406 C 346.5 28.535156 343.222656 25.554688 338.160156 25.554688 C 332.875 25.554688 328.707031 28.683594 328.707031 36.277344 L 328.707031 56.230469 L 320.667969 56.230469 L 320.667969 19.003906 L 328.707031 19.003906 L 328.707031 23.769531 C 331.164062 19.898438 335.183594 18.035156 340.246094 18.035156 Z M 392.660156 4.113281 L 400.699219 4.113281 L 400.699219 56.230469 L 392.660156 56.230469 L 392.660156 50.871094 C 389.828125 54.816406 385.4375 57.199219 379.632812 57.199219 C 369.507812 57.199219 361.09375 48.636719 361.09375 37.617188 C 361.09375 26.523438 369.507812 18.039062 379.632812 18.039062 C 385.4375 18.039062 389.832031 20.421875 392.660156 24.289062 Z M 380.894531 49.53125 C 387.597656 49.53125 392.660156 44.539062 392.660156 37.617188 C 392.660156 30.695312 387.597656 25.707031 380.894531 25.707031 C 374.195312 25.707031 369.132812 30.695312 369.132812 37.617188 C 369.132812 44.542969 374.195312 49.53125 380.894531 49.53125 Z M 427.648438 57.199219 C 416.40625 57.199219 407.996094 48.636719 407.996094 37.617188 C 407.996094 26.523438 416.40625 18.039062 427.648438 18.039062 C 434.945312 18.039062 441.273438 21.835938 444.253906 27.640625 L 437.328125 31.660156 C 435.691406 28.164062 432.042969 25.929688 427.574219 25.929688 C 421.023438 25.929688 416.035156 30.917969 416.035156 37.617188 C 416.035156 44.320312 421.023438 49.304688 427.574219 49.304688 C 432.042969 49.304688 435.691406 46.996094 437.476562 43.574219 L 444.402344 47.519531 C 441.273438 53.402344 434.945312 57.199219 427.652344 57.199219 Z M 457.652344 29.277344 C 457.652344 36.054688 477.679688 31.960938 477.679688 45.734375 C 477.679688 53.179688 471.203125 57.199219 463.164062 57.199219 C 455.71875 57.199219 450.355469 53.847656 447.976562 48.488281 L 454.898438 44.46875 C 456.089844 47.816406 459.066406 49.828125 463.164062 49.828125 C 466.734375 49.828125 469.492188 48.636719 469.492188 45.65625 C 469.492188 39.03125 449.464844 42.753906 449.464844 29.429688 C 449.464844 22.429688 455.492188 18.039062 463.089844 18.039062 C 469.191406 18.039062 474.257812 20.867188 476.859375 25.78125 L 470.085938 29.578125 C 468.746094 26.675781 466.140625 25.332031 463.089844 25.332031 C 460.183594 25.332031 457.652344 26.597656 457.652344 29.277344 Z M 491.976562 29.277344 C 491.976562 36.054688 512.003906 31.960938 512.003906 45.734375 C 512.003906 53.179688 505.523438 57.199219 497.484375 57.199219 C 490.039062 57.199219 484.679688 53.847656 482.296875 48.488281 L 489.21875 44.46875 C 490.410156 47.816406 493.390625 49.828125 497.484375 49.828125 C 501.058594 49.828125 503.8125 48.636719 503.8125 45.65625 C 503.8125 39.03125 483.785156 42.753906 483.785156 29.429688 C 483.785156 22.429688 489.816406 18.039062 497.410156 18.039062 C 503.515625 18.039062 508.578125 20.867188 511.183594 25.78125 L 504.40625 29.578125 C 503.066406 26.675781 500.460938 25.332031 497.410156 25.332031 C 494.507812 25.332031 491.976562 26.597656 491.976562 29.277344 Z M 491.976562 29.277344 "/>
</g>
</svg>

<svg width="512" height="63.478" xmlns="http://www.w3.org/2000/svg"><path d="M52.898 0C38.792 0 29.976 7.053 26.45 21.16c5.29-7.054 11.462-9.699 18.515-7.935 4.024 1.005 6.9 3.926 10.084 7.157 5.186 5.264 11.189 11.357 24.3 11.357 14.106 0 22.922-7.053 26.449-21.16-5.29 7.054-11.462 9.699-18.515 7.935-4.024-1.005-6.9-3.926-10.084-7.157C72.012 6.093 66.01 0 52.898 0zM26.45 31.739c-14.106 0-22.922 7.053-26.449 21.16 5.29-7.054 11.461-9.699 18.514-7.935 4.025 1.007 6.9 3.926 10.084 7.157 5.186 5.264 11.19 11.357 24.3 11.357 14.107 0 22.923-7.053 26.45-21.16-5.29 7.054-11.462 9.699-18.515 7.935-4.024-1.005-6.9-3.926-10.084-7.156-5.186-5.265-11.189-11.358-24.3-11.358z" fill="#38bdf8"/><path d="M158.687 26.747h-9.231v17.868c0 4.765 3.126 4.69 9.231 4.392v7.222c-12.358 1.489-17.272-1.936-17.272-11.614V26.747h-6.85v-7.743h6.85v-10l8.04-2.382v12.382h9.232zm35.192-7.743h8.04V56.23h-8.04v-5.36c-2.83 3.945-7.222 6.328-13.03 6.328-10.124 0-18.537-8.562-18.537-19.58 0-11.093 8.413-19.58 18.538-19.58 5.807 0 10.2 2.382 13.029 6.253zM182.115 49.53c6.7 0 11.764-4.989 11.764-11.912s-5.063-11.912-11.764-11.912-11.763 4.988-11.763 11.912 5.063 11.912 11.763 11.912zm33.205-36.11c-2.83 0-5.137-2.383-5.137-5.138a5.147 5.147 0 0 1 5.137-5.137 5.147 5.147 0 0 1 5.137 5.137c0 2.755-2.308 5.138-5.137 5.138zm-4.02 42.808V19.004h8.04V56.23zm17.346 0V1.881h8.041v54.348zm60.23-37.225h8.487L285.675 56.23h-7.892l-7.743-25.09-7.817 25.09h-7.891l-11.689-37.225h8.487l7.222 25.685 7.817-25.685h7.668l7.743 25.685zm18.464-5.583c-2.83 0-5.137-2.383-5.137-5.138a5.147 5.147 0 0 1 5.137-5.137 5.147 5.147 0 0 1 5.137 5.137c0 2.755-2.308 5.138-5.137 5.138zm-4.02 42.808V19.004h8.04V56.23zm36.926-38.193c8.339 0 14.295 5.659 14.295 15.337v22.856h-8.04V34.192c0-5.658-3.277-8.636-8.34-8.636-5.285 0-9.454 3.127-9.454 10.72V56.23h-8.04V19.004h8.04v4.765c2.457-3.871 6.477-5.733 11.54-5.733zM392.66 4.114h8.04V56.23h-8.04v-5.36c-2.83 3.945-7.222 6.328-13.029 6.328-10.125 0-18.538-8.562-18.538-19.58 0-11.093 8.413-19.58 18.538-19.58 5.807 0 10.2 2.382 13.029 6.253zM380.896 49.53c6.7 0 11.763-4.989 11.763-11.912s-5.063-11.912-11.763-11.912-11.763 4.988-11.763 11.912 5.062 11.912 11.763 11.912zm46.754 7.668c-11.242 0-19.654-8.562-19.654-19.58 0-11.093 8.412-19.58 19.654-19.58 7.296 0 13.625 3.796 16.603 9.603l-6.924 4.02c-1.638-3.498-5.286-5.732-9.753-5.732-6.552 0-11.54 4.988-11.54 11.689s4.988 11.688 11.54 11.688c4.467 0 8.115-2.308 9.902-5.732l6.923 3.945c-3.126 5.882-9.455 9.679-16.75 9.679zm30.003-27.919c0 6.775 20.027 2.68 20.027 16.454 0 7.445-6.477 11.465-14.517 11.465-7.445 0-12.806-3.35-15.188-8.71l6.924-4.021c1.191 3.35 4.169 5.36 8.264 5.36 3.573 0 6.328-1.19 6.328-4.169 0-6.626-20.027-2.903-20.027-16.23 0-6.998 6.03-11.39 13.624-11.39 6.105 0 11.168 2.828 13.773 7.742l-6.774 3.797c-1.34-2.903-3.946-4.244-6.999-4.244-2.903 0-5.435 1.266-5.435 3.946zm34.322 0c0 6.775 20.027 2.68 20.027 16.454 0 7.445-6.477 11.465-14.518 11.465-7.445 0-12.805-3.35-15.188-8.71l6.924-4.021c1.191 3.35 4.17 5.36 8.264 5.36 3.574 0 6.328-1.19 6.328-4.169 0-6.626-20.027-2.903-20.027-16.23 0-6.998 6.03-11.39 13.625-11.39 6.104 0 11.167 2.828 13.773 7.742l-6.775 3.797c-1.34-2.903-3.946-4.244-6.998-4.244-2.904 0-5.435 1.266-5.435 3.946z" fill="#0f172a"/></svg>
